storage/app/icons/tabler/filled/box-align-top-left.svg

<!--
version: "2.19"
unicode: "fa90"
-->
<svg
  xmlns="http://www.w3.org/2000/svg"
  width="24"
  height="24"
  viewBox="0 0 24 24"
  fill="currentColor"
>
  <path d="M10 3h-5a2 2 0 0 0 -2 2v5a2 2 0 0 0 2 2h5a2 2 0 0 0 2 -2v-5a2 2 0 0 0 -2 -2z" />
  <path d="M15 3a1 1 0 0 1 .117 1.993l-.127 .007a1 1 0 0 1 -.117 -1.993l.127 -.007z" />
  <path d="M20 3a1 1 0 0 1 .117 1.993l-.127 .007a1 1 0 0 1 -.117 -1.993l.127 -.007z" />
  <path d="M20 8a1 1 0 0 1 .117 1.993l-.127 .007a1 1 0 0 1 -.117 -1.993l.127 -.007z" />
  <path d="M20 14a1 1 0 0 1 .117 1.993l-.127 .007a1 1 0 0 1 -.117 -1.993l.127 -.007z" />
  <path d="M4 14a1 1 0 0 1 .117 1.993l-.127 .007a1 1 0 0 1 -.117 -1.993l.127 -.007z" />
  <path d="M20 19a1 1 0 0 1 .117 1.993l-.127 .007a1 1 0 0 1 -.117 -1.993l.127 -.007z" />
  <path d="M15 19a1 1 0 0 1 .117 1.993l-.127 .007a1 1 0 0 1 -.117 -1.993l.127 -.007z" />
  <path d="M9 19a1 1 0 0 1 .117 1.993l-.127 .007a1 1 0 0 1 -.117 -1.993l.127 -.007z" />
  <path d="M4 19a1 1 0 0 1 .117 1.993l-.127 .007a1 1 0 0 1 -.117 -1.993l.127 -.007z" />
</svg>

<svg xmlns="http://www.w3.org/2000/svg" width="24" height="24" fill="currentColor" viewBox="0 0 24 24"><path d="M10 3H5a2 2 0 0 0-2 2v5a2 2 0 0 0 2 2h5a2 2 0 0 0 2-2V5a2 2 0 0 0-2-2m5 0a1 1 0 0 1 .117 1.993L14.99 5a1 1 0 0 1-.117-1.993zm5 0a1 1 0 0 1 .117 1.993L19.99 5a1 1 0 0 1-.117-1.993zm0 5a1 1 0 0 1 .117 1.993L19.99 10a1 1 0 0 1-.117-1.993zm0 6a1 1 0 0 1 .117 1.993L19.99 16a1 1 0 0 1-.117-1.993zM4 14a1 1 0 0 1 .117 1.993L3.99 16a1 1 0 0 1-.117-1.993zm16 5a1 1 0 0 1 .117 1.993L19.99 21a1 1 0 0 1-.117-1.993zm-5 0a1 1 0 0 1 .117 1.993L14.99 21a1 1 0 0 1-.117-1.993zm-6 0a1 1 0 0 1 .117 1.993L8.99 21a1 1 0 0 1-.117-1.993zm-5 0a1 1 0 0 1 .117 1.993L3.99 21a1 1 0 0 1-.117-1.993z"/></svg>
